X:219
T:Sweet Nelly
%%VWML:SBG-1-2-499-0
F:http://www.vwml.org/record/SBG/1/2/499
Z:Original Sibelius transcriptions by M. & S. Graebe
M:3/4
I:linebreak $
K:G
V:1 treble nm="P1"
V:1
 D | G3/2 A/ G | B2 c | d2 e | d c B | (A d) G | E2 D | G F E |$ A2 A | B A G | c2 B | A B G | %12
 G2 F | G2 D | G3/2 A/ G | G2 G |$ A3/2 B/ A | A2 A | (B ^c) d | d2 ^c | d2 d | (d c) B | (A B) c | %23
 (B d) G |$ E2 D | (G F) E | A2 A | (B A) G | c2 B | A B G | G2 F | G3 | %32

